app/screens/openweather/static/images/wi-day-thunderstorm.svg

<?xml version="1.0" encoding="utf-8"?>
<!-- Generator: Adobe Illustrator 22.0.1, SVG Export Plug-In . SVG Version: 6.00 Build 0)  -->
<svg version="1.1" id="Layer_1" xmlns="http://www.w3.org/2000/svg" xmlns:xlink="http://www.w3.org/1999/xlink" x="0px" y="0px"
	 viewBox="0 0 30 30" style="enable-background:new 0 0 30 30;" xml:space="preserve">
<path d="M1.52,16.9c0,1.11,0.33,2.09,0.98,2.96s1.51,1.46,2.57,1.78l-0.64,1.7c-0.04,0.14,0,0.21,0.14,0.21H6.7L5.45,27.5h0.29
	l4.17-5.39c0.04-0.04,0.04-0.09,0.01-0.14C9.9,21.92,9.85,21.9,9.78,21.9H7.61l2.47-4.63c0.07-0.14,0.02-0.22-0.14-0.22H7
	c-0.09,0-0.17,0.05-0.23,0.14L5.7,20.07c-0.71-0.18-1.3-0.57-1.77-1.16c-0.47-0.59-0.7-1.26-0.7-2.01c0-0.83,0.28-1.55,0.85-2.17
	s1.27-0.97,2.1-1.07L6.7,13.6c0.13,0,0.2-0.06,0.2-0.18l0.06-0.51c0.11-1.08,0.57-1.99,1.38-2.72c0.81-0.73,1.77-1.1,2.86-1.1
	c1.09,0,2.04,0.37,2.85,1.1s1.28,1.64,1.4,2.72l0.06,0.58c0,0.11,0.06,0.17,0.18,0.17h1.61c0.91,0,1.68,0.32,2.32,0.95
	c0.64,0.63,0.96,1.39,0.96,2.29c0,0.85-0.3,1.59-0.89,2.21c-0.59,0.62-1.32,0.97-2.19,1.04c-0.13,0-0.2,0.06-0.2,0.18v1.37
	c0,0.11,0.07,0.17,0.2,0.17c1.33-0.04,2.46-0.55,3.39-1.51c0.93-0.96,1.39-2.11,1.39-3.45c0-0.74-0.14-1.41-0.43-2.01
	c0.79-0.96,1.18-2.06,1.18-3.32c0-0.94-0.24-1.81-0.71-2.62c-0.47-0.81-1.11-1.45-1.92-1.92c-0.81-0.47-1.68-0.71-2.62-0.71
	c-1.54,0-2.84,0.58-3.88,1.73c-0.81-0.43-1.71-0.65-2.7-0.65c-1.41,0-2.67,0.44-3.76,1.31s-1.79,1.99-2.1,3.36
	c-1.11,0.26-2.02,0.83-2.73,1.73S1.52,15.75,1.52,16.9z M9.61,26.48c-0.01,0.15,0.03,0.3,0.14,0.44s0.26,0.25,0.46,0.33
	c0.07,0.02,0.14,0.03,0.21,0.03c0.17,0,0.34-0.05,0.51-0.15s0.28-0.26,0.34-0.47l2.29-8.57c0.06-0.23,0.04-0.45-0.07-0.64
	c-0.11-0.2-0.27-0.33-0.49-0.4c-0.23-0.07-0.45-0.05-0.65,0.07c-0.2,0.11-0.34,0.28-0.4,0.51l-2.31,8.6
	C9.62,26.3,9.61,26.39,9.61,26.48z M9.94,4.63c0,0.24,0.08,0.43,0.25,0.59l0.64,0.66C11,6.05,11.2,6.13,11.44,6.14
	c0.24,0,0.43-0.08,0.57-0.26c0.19-0.15,0.28-0.35,0.28-0.6c0-0.24-0.08-0.43-0.25-0.59l-0.63-0.66c-0.17-0.16-0.38-0.24-0.61-0.24
	c-0.25,0-0.46,0.08-0.62,0.24C10.02,4.19,9.94,4.39,9.94,4.63z M13.77,23.43c0,0.12,0.04,0.24,0.11,0.38
	c0.13,0.2,0.29,0.34,0.5,0.43c0.07,0.03,0.17,0.05,0.3,0.05c0.15,0,0.26-0.02,0.33-0.06c0.2-0.08,0.34-0.28,0.41-0.58l1.49-5.55
	c0.06-0.24,0.04-0.45-0.07-0.65c-0.11-0.19-0.28-0.32-0.51-0.39c-0.23-0.07-0.45-0.05-0.64,0.07c-0.2,0.11-0.33,0.28-0.39,0.51
	L13.8,23.2c0,0.02-0.01,0.06-0.02,0.11C13.77,23.37,13.77,23.4,13.77,23.43z M15.3,9.04c0.67-0.64,1.49-0.97,2.48-0.97
	c0.97,0,1.81,0.34,2.5,1.02c0.69,0.68,1.04,1.51,1.04,2.48c0,0.62-0.17,1.24-0.52,1.85c-0.99-0.98-2.16-1.47-3.5-1.47h-0.31
	C16.68,10.78,16.11,9.81,15.3,9.04z M16.91,3.79c0,0.23,0.09,0.43,0.26,0.6s0.37,0.26,0.6,0.26c0.24,0,0.43-0.08,0.59-0.25
	c0.16-0.17,0.23-0.37,0.23-0.61V1.73c0-0.24-0.08-0.44-0.23-0.61s-0.35-0.25-0.59-0.25c-0.23,0-0.43,0.08-0.6,0.25
	s-0.26,0.37-0.26,0.61V3.79z M22.44,6.07c0,0.24,0.09,0.44,0.26,0.6c0.14,0.17,0.33,0.25,0.57,0.25s0.44-0.08,0.6-0.25l1.44-1.45
	c0.17-0.16,0.26-0.35,0.26-0.59c0-0.24-0.08-0.44-0.25-0.61c-0.17-0.17-0.37-0.25-0.61-0.25c-0.22,0-0.41,0.09-0.57,0.26L22.7,5.47
	C22.53,5.63,22.44,5.83,22.44,6.07z M23.25,17.93c0,0.22,0.08,0.42,0.24,0.6l0.66,0.63c0.12,0.14,0.31,0.23,0.54,0.24l0.01,0.01
	c0.01,0,0.03,0,0.05,0c0.02,0,0.03,0,0.05,0c0.19,0,0.36-0.09,0.53-0.26c0.17-0.16,0.26-0.36,0.26-0.6c0-0.23-0.09-0.43-0.26-0.61
	l-0.65-0.61c-0.16-0.18-0.36-0.27-0.58-0.27c-0.23,0-0.43,0.08-0.6,0.25C23.33,17.49,23.25,17.7,23.25,17.93z M24.7,11.58
	c0,0.23,0.09,0.43,0.27,0.6c0.18,0.18,0.38,0.27,0.61,0.27h2.03c0.23,0,0.43-0.09,0.6-0.26s0.26-0.38,0.26-0.61
	c0-0.23-0.08-0.43-0.25-0.59c-0.17-0.16-0.37-0.24-0.61-0.24h-2.03c-0.25,0-0.46,0.08-0.63,0.24C24.78,11.15,24.7,11.35,24.7,11.58z
	"/>
</svg>

<?xml version="1.0" encoding="UTF-8" standalone="no"?>
<!-- Generator: Adobe Illustrator 22.0.1, SVG Export Plug-In . SVG Version: 6.00 Build 0)  -->

<svg
   version="1.1"
   id="Layer_1"
   x="0px"
   y="0px"
   viewBox="0 0 30 30"
   style="enable-background:new 0 0 30 30;"
   xml:space="preserve"
   sodipodi:docname="wi-day-thunderstorm.svg"
   inkscape:version="1.4.3 (0d15f75, 2025-12-25)"
   xmlns:inkscape="http://www.inkscape.org/namespaces/inkscape"
   xmlns:sodipodi="http://sodipodi.sourceforge.net/DTD/sodipodi-0.dtd"
   xmlns="http://www.w3.org/2000/svg"
   xmlns:svg="http://www.w3.org/2000/svg"><defs
   id="defs1" /><sodipodi:namedview
   id="namedview1"
   pagecolor="#ffffff"
   bordercolor="#000000"
   borderopacity="0.25"
   inkscape:showpageshadow="2"
   inkscape:pageopacity="0.0"
   inkscape:pagecheckerboard="0"
   inkscape:deskcolor="#d1d1d1"
   inkscape:zoom="32.715474"
   inkscape:cx="13.327027"
   inkscape:cy="14.702523"
   inkscape:window-width="2560"
   inkscape:window-height="1387"
   inkscape:window-x="1352"
   inkscape:window-y="25"
   inkscape:window-maximized="0"
   inkscape:current-layer="Layer_1" />
<path
   id="rain"
   d="m 9.61,26.48 c -0.01,0.15 0.03,0.3 0.14,0.44 0.11,0.14 0.26,0.25 0.46,0.33 0.07,0.02 0.14,0.03 0.21,0.03 0.17,0 0.34,-0.05 0.51,-0.15 0.17,-0.1 0.28,-0.26 0.34,-0.47 l 2.29,-8.57 c 0.06,-0.23 0.04,-0.45 -0.07,-0.64 -0.11,-0.2 -0.27,-0.33 -0.49,-0.4 -0.23,-0.07 -0.45,-0.05 -0.65,0.07 -0.2,0.11 -0.34,0.28 -0.4,0.51 l -2.31,8.6 C 9.62,26.3 9.61,26.39 9.61,26.48 Z m 4.16,-3.05 c 0,0.12 0.04,0.24 0.11,0.38 0.13,0.2 0.29,0.34 0.5,0.43 0.07,0.03 0.17,0.05 0.3,0.05 0.15,0 0.26,-0.02 0.33,-0.06 0.2,-0.08 0.34,-0.28 0.41,-0.58 l 1.49,-5.55 c 0.06,-0.24 0.04,-0.45 -0.07,-0.65 -0.11,-0.19 -0.28,-0.32 -0.51,-0.39 -0.23,-0.07 -0.45,-0.05 -0.64,0.07 -0.2,0.11 -0.33,0.28 -0.39,0.51 l -1.5,5.56 c 0,0.02 -0.01,0.06 -0.02,0.11 -0.01,0.06 -0.01,0.09 -0.01,0.12 z"
   inkscape:label="rain" /><path
   id="sun"
   style="display:inline"
   inkscape:label="sun"
   d="m 21.85,14.9 c 0.79,-0.96 1.18,-2.06 1.18,-3.32 0,-0.94 -0.24,-1.81 -0.71,-2.62 C 21.85,8.15 21.21,7.51 20.4,7.04 19.59,6.57 18.72,6.33 17.78,6.33 c -1.54,0 -2.84,0.58 -3.88,1.73 l 1.4,0.98 c 0.67,-0.64 1.49,-0.97 2.48,-0.97 0.97,0 1.81,0.34 2.5,1.02 0.69,0.68 1.04,1.51 1.04,2.48 0,0.62 -0.17,1.24 -0.52,1.85 z M 9.94,4.63 c 0,0.24 0.08,0.43 0.25,0.59 l 0.64,0.66 c 0.17,0.17 0.37,0.25 0.61,0.26 0.24,0 0.43,-0.08 0.57,-0.26 0.19,-0.15 0.28,-0.35 0.28,-0.6 0,-0.24 -0.08,-0.43 -0.25,-0.59 L 11.41,4.03 C 11.24,3.87 11.03,3.79 10.8,3.79 c -0.25,0 -0.46,0.08 -0.62,0.24 -0.16,0.16 -0.24,0.36 -0.24,0.6 z m 6.97,-0.84 c 0,0.23 0.09,0.43 0.26,0.6 0.17,0.17 0.37,0.26 0.6,0.26 0.24,0 0.43,-0.08 0.59,-0.25 0.16,-0.17 0.23,-0.37 0.23,-0.61 V 1.73 C 18.59,1.49 18.51,1.29 18.36,1.12 18.21,0.95 18.01,0.87 17.77,0.87 17.54,0.87 17.34,0.95 17.17,1.12 17,1.29 16.91,1.49 16.91,1.73 Z m 5.53,2.28 c 0,0.24 0.09,0.44 0.26,0.6 0.14,0.17 0.33,0.25 0.57,0.25 0.24,0 0.44,-0.08 0.6,-0.25 L 25.31,5.22 C 25.48,5.06 25.57,4.87 25.57,4.63 25.57,4.39 25.49,4.19 25.32,4.02 25.15,3.85 24.95,3.77 24.71,3.77 24.49,3.77 24.3,3.86 24.14,4.03 L 22.7,5.47 c -0.17,0.16 -0.26,0.36 -0.26,0.6 z m 0.81,11.86 c 0,0.22 0.08,0.42 0.24,0.6 l 0.66,0.63 c 0.12,0.14 0.31,0.23 0.54,0.24 l 0.01,0.01 c 0.01,0 0.03,0 0.05,0 0.02,0 0.03,0 0.05,0 0.19,0 0.36,-0.09 0.53,-0.26 0.17,-0.16 0.26,-0.36 0.26,-0.6 0,-0.23 -0.09,-0.43 -0.26,-0.61 l -0.65,-0.61 c -0.16,-0.18 -0.36,-0.27 -0.58,-0.27 -0.23,0 -0.43,0.08 -0.6,0.25 -0.17,0.18 -0.25,0.39 -0.25,0.62 z m 1.45,-6.35 c 0,0.23 0.09,0.43 0.27,0.6 0.18,0.18 0.38,0.27 0.61,0.27 h 2.03 c 0.23,0 0.43,-0.09 0.6,-0.26 0.17,-0.17 0.26,-0.38 0.26,-0.61 0,-0.23 -0.08,-0.43 -0.25,-0.59 -0.17,-0.16 -0.37,-0.24 -0.61,-0.24 h -2.03 c -0.25,0 -0.46,0.08 -0.63,0.24 -0.17,0.16 -0.25,0.36 -0.25,0.59 z" />
<path
   d="M 20.8,13.42 C 19.81,12.44 18.64,11.95 17.3,11.95 H 16.99 C 16.68,10.78 16.11,9.81 15.3,9.04 L 13.9,8.06 C 13.09,7.63 12.19,7.41 11.2,7.41 9.79,7.41 8.53,7.85 7.44,8.72 6.35,9.59 5.65,10.71 5.34,12.08 4.23,12.34 3.32,12.91 2.61,13.81 1.9,14.71 1.52,15.75 1.52,16.9 c 0,1.11 0.33,2.09 0.98,2.96 0.65,0.87 1.51,1.46 2.57,1.78 L 5.7,20.07 C 4.99,19.89 4.4,19.5 3.93,18.91 3.46,18.32 3.23,17.65 3.23,16.9 c 0,-0.83 0.28,-1.55 0.85,-2.17 0.57,-0.62 1.27,-0.97 2.1,-1.07 L 6.7,13.6 c 0.13,0 0.2,-0.06 0.2,-0.18 l 0.06,-0.51 c 0.11,-1.08 0.57,-1.99 1.38,-2.72 0.81,-0.73 1.77,-1.1 2.86,-1.1 1.09,0 2.04,0.37 2.85,1.1 0.81,0.73 1.28,1.64 1.4,2.72 l 0.06,0.58 c 0,0.11 0.06,0.17 0.18,0.17 h 1.61 c 0.91,0 1.68,0.32 2.32,0.95 0.64,0.63 0.96,1.39 0.96,2.29 0,0.85 -0.3,1.59 -0.89,2.21 -0.59,0.62 -1.32,0.97 -2.19,1.04 -0.13,0 -0.2,0.06 -0.2,0.18 v 1.37 c 0,0.11 0.07,0.17 0.2,0.17 1.33,-0.04 2.46,-0.55 3.39,-1.51 0.93,-0.96 1.39,-2.11 1.39,-3.45 0,-0.74 -0.14,-1.41 -0.43,-2.01 z"
   id="cloud"
   inkscape:label="cloud"
   style="display:inline"
   sodipodi:nodetypes="cscccsscsssccsssccccsssccssssscsscsscc" /><path
   d="m 5.07,21.64 -0.64,1.7 c -0.04,0.14 0,0.21 0.14,0.21 H 6.7 L 5.45,27.5 H 5.74 L 9.91,22.11 C 9.95,22.07 9.95,22.02 9.92,21.97 9.9,21.92 9.85,21.9 9.78,21.9 H 7.61 l 2.47,-4.63 C 10.15,17.13 10.1,17.05 9.94,17.05 H 7 c -0.09,0 -0.17,0.05 -0.23,0.14 L 5.7,20.07 Z"
   id="lightning"
   inkscape:label="lightning"
   sodipodi:nodetypes="ccscccccsccssccc"
   style="display:inline" /></svg>
